X:1
T:Ei fahret Wasser und fahret Holz
T:Ei fahret Wasser und fahret Holz
T:W. te Grove
T:Carl Reinecke
C:Carl Reinecke
%%score [ 1 ( 2 3 ) 4 5 ]
L:1/8
Q:1/4=84
M:3/4
K:G
V:1 treble nm="Soprano"
V:2 treble nm="Alto"
V:3 treble 
V:4 treble-8 nm="Tenor"
V:5 bass nm="Bass"
V:1
!f!"^Moderato" d | d3/2 e/ d2 d B | c3/2 c/ B3 d | c3/2 e/ e3/2 d/ d3/2 F/ | A2 G2 z!mf! d | %5
w: 1.Ei|fah- ret Was- ser und|fah- ret Holz und|Stäm- men durch die brau- ne|Hai- de, ich|
w: 2.Von|eu- ren Stäm- men da|bau' ich mir dann|ei- ne klei- ne ro- the|Hüt- te, ein|
 d3/2 e/ d2 d B | c3/2 c/ B3 d | !>!c3/2 e/ e3/2 d/ d3/2 F/ | A2 G2 z G | F3/2 G/ A3/2 A/ B3/2 d/ | %10
w: fah- re lie- ber mein|Schä- tze- lein, auf|Ei- nem schma- len Sitz wir|Bei- de, die|ro- then Ro- sen und die|
w: Stock- werk hoch und mit|nied'- rer Thür, vom|Kirch- lein fern nur we- nig|Schrit- te, und|wenn die Hüt- te dann ge-|
 c3/2 c/ B3 G | F3/2 G/ A3/2 A/ B3/2 d/ | c3/2 c/ B2 d2 | !>!c3/2 c/ B2 d2 | !>!c3/2 c/ B3!f! d | %15
w: Au- gen blau der|hüb- schen Mäd- chen ich so|ger- ne schau, und|wird Die mein, die|jetzt mein Stolz, dann|
w: zim- mert steht, dann|spricht der Prie- ster wohl sein|fromm' Ge- bet, wir|trin- ken Wein, wir|trin- ken Meth nach|
 c3/2 e/ e3/2 d/ d3/2 F/ | A2 G2 z |] %17
w: giebt's ein Le- ben vol- ler|Freu- de.|
w: uns- rer Vä- ter gu- ter|Sit- te.|
V:2
!f! G | G3/2 G/ G2 G D | F3/2 F/ G3 =F | E3/2 G/ G3/2 ^F/ F3/2 D/ | D2 D2 z!mf! B | B2 A2 _A2 | %6
w: 1.Ei|fah- ret Was- ser und|fah- ret Holz und|Stäm- men durch die brau- ne|Hai- de, ich|fahr' mir mein|
w: 2.Von|eu- ren Stäm- men da|bau' ich mir dann|ei- ne klei- ne ro- the|Hüt- te, ein|Stock hoch, mit|
 G3/2 G/ G3 =F | !>!E3/2 G/ G3/2 ^F/ F3/2 D/ | D2 D2 z G | D3/2 E/ F3/2 F/ G3/2 B/ | %10
w: Schä- tze- lein, auf|Ei- nem schma- len Sitz wir|Bei- de, die|ro- then Ro- sen und die|
w: nied'- rer Thür, vom|Kirch- lein fern nur we- nig|Schrit- te, und|wenn die Hüt- te dann ge-|
 A3/2 A/ G3 B, | D3/2 E/ F3/2 F/ G3/2 B/ | A3/2 A/ G2 D2 | !>!F3/2 F/ G2 D2 | !>!F3/2 F/ G2 G2 | %15
w: Au- gen blau der|hüb- schen Mäd- chen ich so|ger- ne schau, und|wird Die mein, die|jetzt mein Stolz, dann|
w: zim- mert steht, dann|spricht der Prie- ster wohl sein|fromm' Ge- bet, wir|trin- ken Wein, wir|trin- ken Meth nach|
!f! G3/2 G/ G3/2 F/ F3/2 D/ | D2 D2 z |] %17
w: giebt's ein Le- ben vol- ler|Freu- de.|
w: uns- rer Vä- ter gu- ter|Sit- te.|
V:3
 x | x6 | x6 | x6 | x5 D | D2 D2 D2 | G3/2 C/ D3 x | x6 | x6 | x6 | x6 | x6 | x6 | x6 | x6 | x6 | %16
 x5 |] %17
V:4
!f! B | B3/2 c/ B2 B G | A3/2 A/ G3 B | c3/2 B/ A3/2 A/ A3/2 c/ | c2 B2 z!mf! G | G2 F2 =F2 | %6
w: 1.Ei|fah- ret Was- ser und|fah- ret Holz und|Stäm- men durch die brau- ne|Hai- de, ich|fahr' mir mein|
w: 2.Von|eu- ren Stäm- men da|bau' ich mir dann|ei- ne klei- ne ro- the|Hüt- te, ein|Stock hoch, mit|
 E3/2 _E/ D3 G | !>!G3/2 G/ G3/2 A/ A3/2 c/ | c2 B2 z2 | z2 z2 z G | F3/2 F/ G3/2 A/ B3/2 d/ | %11
w: Schä- tze- lein, auf|Ei- nem schma- len Sitz wir|Bei- de,|die|Au- gen blau der hüb- schen|
w: nied'- rer Thür, vom|Kirch- lein fern nur we- nig|Schrit- te,|und|steht die Hüt- te dann so|
 c3 c B G | d3/2 d/ d2 d2 | !>!d3/2 d/ d2 d2 | !>!d3/2 d/ d3!f! B | c3/2 A/ A3/2 A/ A3/2 c/ | %16
w: Mäd- chen ich so|ger- ne schau, und|wird Die mein, die|jetzt mein Stolz, dann|giebt's ein Le- ben vol- ler|
w: sprich der Prie- ster|sein Ge- bet, wir|trin- ken Wein, wir|trin- ken Meth nach|uns- rer Vä- ter gu- ter|
 c2 B2 z |] %17
w: Freu- de.|
w: Sit- te.|
V:5
!f! G, | G,3/2 G,/ G,2 G, G, | D,3/2 D,/ G,2 G,2 | C,3/2 C,/ C,3/2 D,/ D,3/2 D,/ | %4
w: 1.Ei|fah- ret Was- ser und|fah- ret Holz und|Stäm- men durch die brau- ne|
w: 2.Von|eu- ren Stäm- men da|bau' ich mir dann|ei- ne klei- ne ro- the|
 G,2 G,2 z!mf! G,, | G,,2 G,,2 G,,2 | G,,3/2 G,,/ G,,3 B,, | !>!C,3/2 A,,/ A,,3/2 D,/ D,3/2 D,/ | %8
w: Hai- de, ich|fahr' mir mein|Schä- tze- lein, auf|Ei- nem schma- len Sitz wir|
w: Hüt- te, ein|Stock hoch, mit|nied'- rer Thür, vom|Kirch- lein fern nur we- nig|
 G,2 G,2 z2 | z D, D,3 D, | D,2 D,3 D, | D,4 D,2 | F,3/2 F,/ G,2 B,2 | !>!A,3/2 D,/ G,2 B,2 | %14
w: Bei- de,|die Au- gen|blau ich so|gern, so|ger- ne schau, und|wird Die mein, die|
w: Schrit- te,|dann spricht der|Prie- ster sein|fromm', sein|fromm' Ge- bet, wir|trin- ken Wein, wir|
 !>!A,3/2 D,/ G,3!f! =F, | E,3/2 C,/ C,3/2 D,/ D,3/2 D,/ | G,2 G,2 z |] %17
w: jetzt mein Stolz, dann|giebt's ein Le- ben vol- ler|Freu- de.|
w: trin- ken Meth nach|uns- rer Vä- ter gu- ter|Sit- te.|

